do
  setcps (100/120)

setkey "gs" "major"

mc $ swingBy 0.1 4 <$>
   [ n "[0(3,8) . ~ 0@3 ]/2"
   , n "~ 0"
   , n "[0@3 0@5 . 0*2 ~@2 0*2]/2" # open "[0.1|0.4]"
   , t "[1@3 0@3 0@2 . ~ -3? [-3 0]? 1]/2"
     # octave "<4 5>/2"
   ]
