-- IMPROV
do
  setcps (95/120)
  let master = 1
  let fader vol = gain (vol * master)
  let croom = 0.1
  let csize = 0.1
  let root = (|+ 5)
  let bus = room croom # size csize # orbit 0
  let tonal scalename pat = (root . scale scalename) pat
  let reface x = n x # sound "reface" # midichan 0 # gain 0.8 # sus 3
  let vibe =  s "supervibe" # fader 0.8 # lpf 500 |* sus "{4@6 10@7}%4" # bus
  let piano =  s "superpiano" # fader 1 # lpf 250 # bus # sus 6
  p "budd"
    $ (reface . tonal "melodicMinor" . stack)
      [
      "{0@3 1@2 <~ 2>@3}%2" |+ "[0,2,4]"
      ]
  p "jelinek"
    $ sound "<bd vk:36>@3 bd"
    # fader 0.9
    # bus
  clutchIn "hats" 8
    $ degrade
    $ s "vh*8"
    # n (irand 120) # cut 1 # sus 0.1 # bus
