
p "chords"
  $

let axo = s "axo" # midichan 0 |* gain 0.85
    axocc n v = once $ ccv v # ccn n # axo
    nofx = axocc 1 0
    fxstut = axocc 1
    fxdrop = axocc 2
    fxdist = axocc 3

d1 $ s "bd*2"

axoreset

-- maybe it's 9
let axo = s "axo" # midichan 9 |* gain 0.85
    axocc n v = once $ ccv v # ccn n # axo
    axocc' n v = p "axofx" $ ccv v # ccn n # axo

axocc 1 0


axocc' 1 ("[0|1]*[16|8|4]" |* irand 200)

axocc 3 0

do
  axocc' 1 (fast "[32|16|8|4]" $ "[0|1|1]" |* irand 100)

axocc' 1 $ fast 32 ("1" |* irand 190)

axoreset

axocc' 1 "1 0@1000"

axocc' 1 0

setkey 0 "minor"

do
  axocc 3 0
  axocc' 2 "~"


p "vibe" $ t "~ 0*2" # s "supervibe" # orbit 0 # gain 1.2 # sus 12

d1 $ t "[0 2 4 6]*4" # s "superpiano" # gain 0.7 # octave 4 # sus 1

d1 $ s "bd"

    once $ ccv 20 # ccn 1 # axo

do
  let axo = s "axo" # midichan 9 |* gain 0.85
      axocc n v = once $ ccv v # ccn n # axo
  p "test"
    -- $ sometimes (chop 2)
    $ (note . stack)
      [ "[2 2*<2 1> 2 2]*2"
      , "[0 . ~@2 [~ 0] ~]/2"
      , "~@3 1 . ~ 1 . ~ . 1"
      , "[~ . ~@3 5*2 . 5 . ~]/2"
      ]
    # axo

    # cc "<0 1>"

    # gain 0.7

  # gain (range 0.9 1.8 $ rand)

d1 $ s "bd*4" # orbit 0

setcps (70/120)


p "150"
  -- $ note "[[0@3 1 . ~ 1 . [~] . 1]/2,[2 2 2*2 2]*2]"
  -- $ sometimes (hurry 2)
  $ stack
    [
    note "[~@3 4 . ~ 4 . ~ <~ ~> . [4@3 <~ ~>]]/2"
    , note "[0@3 1 . ~ 1 . ~ <~ 0> . [1@3 <0 ~>]]/2"
    , sometimes (shuffle 4) $ note "[3 2!3]*2" # gain 0.7
    -- , degradeBy 0.1 $ note "2*8" # gain 0.9
    , note "[~ 5 5 ~ . 5(3,8)]/2" # gain 0.8
    ]
  # axo


  |* gain 0.6

p "test"

setcps (80/120)

d1 $ s "bd*2"

setcps ((80 |+ (slow 16 sine * 20))/120)

p "midi" $ ccv "[0|1]*32" # ccn (irand 2) # axo

p "midi" $ ccv "[0|1]*32" # ccn (irand 2) # axo

p "midi" $ ccn "[2?]*4" # ccv 0 # axo

axocc (degrade "2*32") (cF0 "circle")

do
  let axo = s "axo" # midichan 0 |* gain 0.85
      axocc n v = once $ ccv v # ccn n # axo
      nofx = axocc 1 0
      fxstut = axocc 1
      fxdrop = axocc 2
      fxdist = axocc 3
  axocc 1 "[1 0]*4"


fxstut "[0|28]"

nofx



let

  axocc 2 0
  axocc 3 0

d1 $ s "bd"

p "putaria"
  $ fast (slow 64 sine * 1.3 + 1.4)
  $ sometimes (hurry 2)
  $ stack
    [
      note "[2 2 3 2]*2"
    -- , note "[2 2 2 <2*2 5>]*2" # gain 1.1
    -- , note "[5 5 5 <5*2 5>]*2" # gain 1.1
    , note "0 . <0 0*2>" # gain 1.3
    -- , sometimes (chop 4) $ note "~@3 1 . ~ 1"
    , note "~@3 1 . ~ 1"
    -- , note "~@3 4 . ~ 4"
    ]
  # axo
  # gain (cF 1 "haha" |* 0.7)

  # sus 0.1

  |* gain 1.3


d1 $ s "biak biasn"

axocc 0 0

once $ fast 2 $ note "~@3 6*4" # axo # gain 1.3

p "test"
  -- $ sometimes (chop 2)
  $ stack
    [ note "[3 2 2 2]*2 . 3 2 2 3 2 2 3 2"
    , note "0@3 0 . 1 0 . ~ 0 . 1" # gain 1.2
    , note "4 4 ~ 4 ~ 4 ~ 4 4 ~ 4 ~ 4 ~ 4 4"
    ]
  # axo
  |* gain 1.3


p "trap"
  $ stack
    [ note "[0(3,8) . 0(3,8,[1|2|3])]/2"
    , note "~ 1"
    , rarely (chop "[2|2|[4 1 4 1]]*8") $ note "2*8"
    ]
  # axo
