do
  -- @setup
  setcps (150/120)
  setkey "c" "lydian"
  setI "prisma_7" $ slow (14/2) $ ring "0 2 3 4 6 8 9" "0@3 0@3 0@2 0@2 0@18"

let reface pat = p "reface" $ pat # s "reface" # orbit 0 # midichan 0

do
  -- @intro
  p "drums" $ stack
    [ s "bsr*2" ]
  reface $ stack
    [ t ("{0@2 [0 ~] [0 ~] ~0@2 [0 ~] [0 ~] ~@3  0@2 [0 ~] [0 ~] ~@2 0@2 [0 ~] [0 ~] }%4" |+ "[-2,-1]") # octave 4 # amp 0.2
    , t (cI_ "prisma_7") # sus 12 # amp 0.3
    , slow (14/2) $ note ("-1@10 0@18") |+ t "[-3,0,2,6,8 9]" # octave 4 # amp 0.25
    ]

do
  hush
  mm $ slow (14/2) $ note ("-1@10 0@18") |+ t "[-3,0,2,6,8 9]" # octave 6 # amp 0.25
