
do
  -- @name ASTRO
  hush 


do
  -- @name intro
  hush
  all id
  setcps (122/120/2)
  setkey' 0 (-5) "lydian"
  setkey' 1 (-5) "lydian"
  d1 $ fast 2 "0 ~ ~ 0"
  d2 $ fast 2 "~ 0"
  d8 $ fast 2 $ "0*4"
  d7 $ "[[0 0 ~ 0 0 ~ 0 ~ | 0 0 ~ 0 ~ 0 0 ~] . 0 ~ 0 ~ 0 ~ 0 0?]"
  d9 "[~@3 0]*2"
  s2 $ fast 2 (note $ k 0 $ "0 ~ ~ -1" |+ "[0,2]") # octave 4 # amp 0.7
  s1 $ fast 2
    $ (note . cat)
      ([ k 0 $ "~ 6 9 5 . 8 6 4 2"
       , k 0 $ "~ 1 ~ [[6, ~@2 3@3,~@3 1@2] | [6, ~ 3@4,~@3 -1@2]]@5"
       , k 0 $ "<[~ 0 ~ [5, ~@2 2@3,~@3 0@2]@5] [~ 2 ~ 4 ~ 5 ~ 6]>"
       ])
    # amp 0.5
    # sus 2

do
  -- @name counter
  setkey' 1 2 "mixolydian"
  s4 $ fast 2 $ (note . cat)
    ([
      k 0 $ "9 9 ~ ~ ~ 5 6 8",
      k 0 $ "9 9 6 5 8 8 ~ ~",
      k 0 $ "~ 5 6 8 9 9 8 6",
      k 0 $ "8 8 6 5 6 6 5 4",
      k 0 $ "5 4 2 4 -1 0 2 4",
      k 0 $ "7 7 6 7 6 6 5 4",
      k 1 $ "5 6 ~ 3 ~ 2 1 -1" |- 4,
      k 1 $ "-1 0 1 2 3 4 5 7"
     ])
    # amp 0.9
    |* sus 0.1
  


do
  -- @name axe
  setkey' 1 2 "mixolydian"
  -- todo: cc decay
  s1 silence
  d1 $ "[0 ~@3 . 0]*2" 
  d2 $ "0@3 0@3 0 0 . ~@2 0@3 0@3"
  d7 $ "[[0 0 ~ 0 0 ~ 0 ~ | 0 0 ~ 0 ~ 0 0 ~] . 0 ~ 0 ~ 0 ~ 0 0?]"
  d8 $ "0*16"
  s3 $ fast 2 $ (note . cat)
    ( fmap (k 0) ["0", "0", "-1", "2", "-2", "1"]
    ++ fmap (k 1) ["-1", "0"])
    # amp 0.8
    # octave 3
  

do
  -- @name ASTRO REPRISE
  hush 

do
  -- @name intro
  hush 
  all $ swingBy (1/12) 8
  setcps (92/120/2)
  setcps (86/120/2)
  setkey' 0 (-6) "lydian"
  setkey' 1 (-1) "lydian"
  setkey' 2 (-2) "mixolydian"
  s2
    $ fast 2
    $ (note . cat)
    (fmap (k 0)
      [ "0@5 0 ~@2" |+ 9
      , "0@5 0 ~@2" |+ 9
      , "8@5 7 ~@2"
      , "5@5 4 ~@2"
      , "2"
      , "~"
      , "~"
      , "~"
      ]
    )
    # octave 5

do
  -- @name drums
  d1 $ fast 2 $ "0 ~ ~ [0|0|~ 0]"
  d2 $ fast 2 $  "~ 0"
  d8 $ fast 2 $  "0*4"

do
  -- @name preface
  s1 $ fast 2 $ (note . cat)
    ([ k 2 $ "2 4 5 2 4 0 4 5" |+ 2
    , k 2 $ "2 4 5 2 4 0 1 2" |+ 2
    , k 1 $ "2 3 4 2 3 0 2 4" |+ 2
    , k 1 $ "2 4 5 2 4 0 2 5" |- 2
    ]
    ++ (take 4 $ repeat (k 0 $ "2 4 5 2 4 0 2 5")))
    # octave 5
    # amp 0.7
    # sustainpedal 1

do
  -- @name bassline
  s3
    $ fast 2
    $ (note . cat)
      ([ k 2 "0 2 4 7"
      , k 2 "0 2 4 7"
      , k 1 "0 2 4 6"
      , k 1 $ "-2 -1 1 4"
      ]
      ++ (take 4 $ repeat (k 0 "0 2 4 6"))
    )
    # octave 3
    # amp 0.8

do
  -- @name drums 2
  d1 $ fast 2 $ "0 ~ ~ [0|0|~ 0]"
  d2 $ fast 2 $  "~ 0"
  d8 $ fast 8
    $ sometimes (chop 2) $ "0"


do
  -- @name bluegrass
  s3
    $ fast 2
    $ (note . cat)
      ([ k 2 "[0 2 4 7, 14@3 13@2 14@3]"
      , k 2 "[0 2 4 7, 14@3 13@2 14@3]"
      , k 1 "[0 2 4 6, 14@3 13@2 14@3]"
      , k 1 $ "-2 -1 1 4"
      ] ++ (take 4 $ repeat (k 0 "0 2 4 6")))
    # octave 3
    # amp 0.8

do
  -- @name hold
  hush
  setF "plink" 0
  d1 $ "0(3,8) . ~@2 0@3 0@3"
  s2
    $ fast 2
    $ (note . cat . fmap (+| "0@5 0 ~@2"))
    [ k 0 $ "[-3,0,2,7]" |+ 2
    , k 0 $ "[0,2,3,7]" |+ 2
    , k 0 $ "[0,2,3 4,7 5]" |+ 1
    , k 1 $ "[0,2,4 3,7 6]" |- 5
    ]
    # octave 5
  s1
    $ fast 2
    $ sometimesBy "^plink" (# (octave (5 |+ irand 3) # sus 4))
    $ (note . cat . take 3)
    -- $ (note . cat . fmap (k 0) . fmap (rarely (|+ ("[1 0@3]*4" |* (irand 8) |- 4))))
    (
      fmap (k 0) [
      "2 4 5 2 4 0 4 5"
    , "6 8 9 6 8 -4 -2 -1"
    , "1 2 3 1 2 -1 1 [4|5]"
    ] ++ fmap (k 1) [
      "[0 1 2 0 1 -2 1 2 | 0 1 2 3 6 5 3 2]"
    ])
    # sus 1.4

do
  -- @name bassline
  s3
    $ fast 2
    $ (note . cat)
      ([ k 0 "0 2 4 7"
      , k 0 "0 2 4 7"
      , k 1 "0 2 4 6"
      ]
    )
    # octave 3
    # amp 0.8

do
  -- @name full
  setF "plink" 0
  setcps (90/120/2)
  d1 $ "0(3,8) . ~ 0 ~@2"
  d1 $ "[0@3 0]*2"
  d1 $ "0 ~ ~ 0? ~ ~ 0? ~ . ~ 0 ~ [~ 0]"
  d2 $ "[~ 0]*2"
  d8 $ "0*16"
  s1
    $ fast 2
    $ sometimesBy "^plink" (# (octave (5 |+ irand 3) # sus 4))
    $ (note . cat)
    -- $ (note . cat . fmap (k 0) . fmap (rarely (|+ ("[1 0@3]*4" |* (irand 8) |- 4))))
    (
      fmap (k 0) [
      "2 4 5 2 4 0 4 5"
    , "6 8 9 6 8 -4 -2 -1"
    , "1 2 3 1 2 -1 1 2"
    ] ++ fmap (k 1) [
      "[0 1 2 0 1 -2 1 2 | 0 1 2 3 6 5 3 2]"
    ])
    # sus 1.4
  s3
    $ fast 2
    $ (note . cat)
      ([ k 0 "0 2 4 7"
      , k 0 "0 2 4 6"
      , k 0 $ "0 2 4 6" |+ 1
      , k 1 "0 2 4 6"
      ]
      ++ (take 4 $ repeat (k 0 "0 2 4 6"))
    )
    # octave 3
    # amp 0.8

do
  -- @section end
  d2 silence
  d8 silence
  setF "plink" 0.3